packages/icons/src/ccm-apply.svg

<svg viewBox="0 0 24 24" fill="none" xmlns="http://www.w3.org/2000/svg">
<path fill-rule="evenodd" clip-rule="evenodd" d="M5.51067 6.49354C5.51067 6.05913 5.86284 5.70696 6.29726 5.70696H15.343C15.7774 5.70696 16.1296 5.35479 16.1296 4.92037C16.1296 4.48596 15.7774 4.13379 15.343 4.13379H6.29726C4.994 4.13379 3.9375 5.19029 3.9375 6.49354V17.5057C3.9375 18.809 4.994 19.8655 6.29726 19.8655H17.3095C18.6127 19.8655 19.6692 18.809 19.6692 17.5057V11.9996C19.6692 11.5652 19.317 11.2131 18.8826 11.2131C18.4482 11.2131 18.096 11.5652 18.096 11.9996V17.5057C18.096 17.9402 17.7439 18.2923 17.3095 18.2923H6.29726C5.86284 18.2923 5.51067 17.9402 5.51067 17.5057V6.49354ZM19.8321 7.44304C20.1393 7.13586 20.1393 6.63782 19.8321 6.33064C19.5249 6.02346 19.0269 6.02346 18.7197 6.33064L11.4101 13.6403L8.3253 10.3358C8.01812 10.0286 7.52009 10.0286 7.2129 10.3358C6.90572 10.6429 6.90572 11.141 7.2129 11.4482L11.4101 15.8651L19.8321 7.44304Z" fill="currentColor"/>
</svg>

<svg xmlns="http://www.w3.org/2000/svg" fill="none" viewBox="0 0 24 24"><path fill="currentColor" fill-rule="evenodd" d="M5.51 6.494c0-.435.353-.787.787-.787h9.046a.787.787 0 0 0 0-1.573H6.297a2.36 2.36 0 0 0-2.36 2.36v11.012a2.36 2.36 0 0 0 2.36 2.36H17.31a2.36 2.36 0 0 0 2.36-2.36V12a.787.787 0 0 0-1.574 0v5.506a.786.786 0 0 1-.787.786H6.297a.787.787 0 0 1-.786-.786zm14.322.949a.787.787 0 1 0-1.112-1.112l-7.31 7.31-3.085-3.305a.787.787 0 1 0-1.112 1.112l4.197 4.417z" clip-rule="evenodd"/></svg>
